packages/icons/src/star.svg

<svg width="15" height="15" viewBox="0 0 15 15" fill="none" xmlns="http://www.w3.org/2000/svg">
  <path
    fill-rule="evenodd"
    clip-rule="evenodd"
    d="M6.97942 1.25171L6.9585 1.30199L5.58662 4.60039C5.54342 4.70426 5.44573 4.77523 5.3336 4.78422L1.7727 5.0697L1.71841 5.07405L1.38687 5.10063L1.08608 5.12475C0.820085 5.14607 0.712228 5.47802 0.914889 5.65162L1.14406 5.84793L1.39666 6.06431L1.43802 6.09974L4.15105 8.42374C4.23648 8.49692 4.2738 8.61176 4.24769 8.72118L3.41882 12.196L3.40618 12.249L3.32901 12.5725L3.25899 12.866C3.19708 13.1256 3.47945 13.3308 3.70718 13.1917L3.9647 13.0344L4.24854 12.861L4.29502 12.8326L7.34365 10.9705C7.43965 10.9119 7.5604 10.9119 7.6564 10.9705L10.705 12.8326L10.7515 12.861L11.0354 13.0344L11.2929 13.1917C11.5206 13.3308 11.803 13.1256 11.7411 12.866L11.671 12.5725L11.5939 12.249L11.5812 12.196L10.7524 8.72118C10.7263 8.61176 10.7636 8.49692 10.849 8.42374L13.562 6.09974L13.6034 6.06431L13.856 5.84793L14.0852 5.65162C14.2878 5.47802 14.18 5.14607 13.914 5.12475L13.6132 5.10063L13.2816 5.07405L13.2274 5.0697L9.66645 4.78422C9.55432 4.77523 9.45663 4.70426 9.41343 4.60039L8.04155 1.30199L8.02064 1.25171L7.89291 0.944609L7.77702 0.665992C7.67454 0.419604 7.32551 0.419604 7.22303 0.665992L7.10715 0.944609L6.97942 1.25171ZM7.50003 2.60397L6.50994 4.98442C6.32273 5.43453 5.89944 5.74207 5.41351 5.78103L2.84361 5.98705L4.8016 7.66428C5.17183 7.98142 5.33351 8.47903 5.2204 8.95321L4.62221 11.461L6.8224 10.1171C7.23842 9.86302 7.76164 9.86302 8.17766 10.1171L10.3778 11.461L9.77965 8.95321C9.66654 8.47903 9.82822 7.98142 10.1984 7.66428L12.1564 5.98705L9.58654 5.78103C9.10061 5.74207 8.67732 5.43453 8.49011 4.98442L7.50003 2.60397Z"
    fill="currentColor"
  />
</svg>

<svg xmlns="http://www.w3.org/2000/svg" width="15" height="15" fill="none"><path fill="currentColor" fill-rule="evenodd" d="m6.98 1.252-.022.05L5.588 4.6a.3.3 0 0 1-.253.184l-3.561.286-.055.004-.331.027-.3.024a.3.3 0 0 0-.172.527l.23.196.252.216.041.036 2.713 2.324a.3.3 0 0 1 .097.297l-.83 3.475-.012.053-.077.323-.07.294a.3.3 0 0 0 .448.326l.258-.158.284-.173.046-.028 3.049-1.863a.3.3 0 0 1 .312 0l3.049 1.863.046.028.284.173.258.158a.3.3 0 0 0 .448-.326l-.07-.293-.077-.324-.013-.053-.829-3.475a.3.3 0 0 1 .097-.297L13.562 6.1l.041-.036.253-.216.23-.196a.3.3 0 0 0-.172-.527l-.3-.024-.332-.027-.055-.004-3.56-.286a.3.3 0 0 1-.254-.184L8.042 1.302l-.021-.05-.128-.307-.116-.279a.3.3 0 0 0-.554 0l-.116.279zm.52 1.352-.99 2.38a1.3 1.3 0 0 1-1.096.797l-2.57.206 1.958 1.677a1.3 1.3 0 0 1 .418 1.29l-.598 2.507 2.2-1.344a1.3 1.3 0 0 1 1.356 0l2.2 1.344-.598-2.508a1.3 1.3 0 0 1 .418-1.289l1.958-1.677-2.57-.206a1.3 1.3 0 0 1-1.096-.797z" clip-rule="evenodd"/></svg>
